resources/svg/ubuntu.svg

<svg xmlns="http://www.w3.org/2000/svg" viewBox="0 0 24 24" fill="currentColor"><path fill="currentColor" fill-rule="evenodd" d="M24,12.000127 C24,18.6272309 18.6273155,23.9999153 11.999873,23.9999153 C5.37243046,23.9999153 0,18.6273155 0,12.000127 C0,5.37251513 5.37234579,0 11.9997883,0 C18.6272309,0 24,5.37251513 24,12.000127 L24,12.000127 Z M3.84013547,10.3980668 C2.95511615,10.3980668 2.23799058,11.1151924 2.23799058,12.0002117 C2.23799058,12.8848923 2.95511615,13.6021026 3.84013547,13.6021026 C4.72481611,13.6021026 5.44202635,12.8848923 5.44202635,12.0002117 C5.44202635,11.1151077 4.72490078,10.3980668 3.84013547,10.3980668 L3.84013547,10.3980668 Z M15.2791773,17.6795583 C14.5128605,18.121941 14.2505636,19.1013635 14.6927769,19.8673416 C15.1352442,20.6336585 16.114582,20.8961247 16.8808989,20.4537421 C17.6469617,20.0114441 17.909428,19.0320216 17.4670453,18.2657894 C17.0247473,17.4998113 16.0452402,17.2372603 15.2791773,17.6795583 L15.2791773,17.6795583 Z M7.32009948,11.9999577 C7.32009948,10.4166088 8.10690561,9.01808689 9.31010178,8.17125218 L8.1388249,6.20927451 C6.73674704,7.14602508 5.69382463,8.57807489 5.26058596,10.255319 C5.76663786,10.6678144 6.08997936,11.2959554 6.08997936,12.000127 C6.08997936,12.7041293 5.76663786,13.3322703 5.2605013,13.744681 C5.6936553,15.4220944 6.73666237,16.8541443 8.13874023,17.7908102 L9.31010178,15.8286632 C8.10690561,14.9819978 7.32009948,13.5835606 7.32009948,11.9999577 L7.32009948,11.9999577 Z M12.0000423,7.32001482 C14.4449579,7.32001482 16.4504542,9.19461662 16.6606812,11.5849223 L18.9439684,11.5515637 C18.8316159,9.78677438 18.0607271,8.20198614 16.8759882,7.03722858 C16.2668971,7.26735223 15.5632336,7.23246962 14.9550738,6.88127282 C14.3461521,6.52973736 13.964052,5.93673293 13.8594042,5.29318258 C13.2674157,5.12935283 12.6443547,5.04002963 12.000127,5.04002963 C10.8921807,5.04002963 9.84544829,5.30012524 8.91564038,5.7607112 L10.0286667,7.75545482 C10.6278518,7.47664791 11.2955321,7.32001482 12.0000423,7.32001482 L12.0000423,7.32001482 Z M12.0000423,16.6799852 C11.2954474,16.6799852 10.6278518,16.5233521 10.028582,16.2445452 L8.91538638,18.2394581 C9.84527896,18.6998748 10.892096,18.960055 12.0000423,18.960055 C12.64427,18.960055 13.2673311,18.8707318 13.8594042,18.7069021 C13.964052,18.0633517 14.3462367,17.4703473 14.9552432,17.1185578 C15.5634029,16.7675304 16.2670665,16.7326478 16.8761576,16.9628561 C18.0608117,15.7980139 18.8317006,14.2132256 18.9438837,12.4484363 L16.6605965,12.4150777 C16.4505389,14.805722 14.4449579,16.6799852 12.0000423,16.6799852 L12.0000423,16.6799852 Z M15.2789233,6.32027234 C16.0451555,6.76282433 17.0246627,6.5002734 17.466876,5.73429524 C17.9093433,4.96797841 17.6470464,3.98855591 16.8807295,3.54608858 C16.114582,3.10379059 15.1351595,3.36625686 14.6926922,4.13257369 C14.2503942,4.89855185 14.5128605,5.87805902 15.2789233,6.32027234 L15.2789233,6.32027234 Z"/></svg>

<svg viewBox="0 0 24 24"><path fill="currentColor" fill-rule="evenodd" d="M24 12c0 6.627-5.373 12-12 12c-6.628 0-12-5.373-12-12S5.372 0 12 0c6.627 0 12 5.373 12 12zM3.84 10.398a1.602 1.602 0 1 0 0 3.204a1.602 1.602 0 0 0 0-3.204zm11.44 7.282a1.601 1.601 0 1 0 1.6 2.774a1.601 1.601 0 0 0-1.6-2.774zM7.32 12c0-1.583.787-2.982 1.99-3.829L8.14 6.21a6.972 6.972 0 0 0-2.878 4.046c.506.413.829 1.041.829 1.745c0 .704-.323 1.332-.83 1.745A6.97 6.97 0 0 0 8.14 17.79l1.171-1.962A4.672 4.672 0 0 1 7.32 12zM12 7.32a4.68 4.68 0 0 1 4.66 4.265l2.284-.033a6.938 6.938 0 0 0-2.068-4.515c-.61.23-1.313.195-1.92-.156a2.244 2.244 0 0 1-1.097-1.588a6.96 6.96 0 0 0-4.943.468l1.113 1.994A4.66 4.66 0 0 1 12 7.32zm0 9.36a4.66 4.66 0 0 1-1.971-.435l-1.114 1.994a6.961 6.961 0 0 0 4.944.467a2.245 2.245 0 0 1 1.096-1.587a2.245 2.245 0 0 1 1.921-.156a6.938 6.938 0 0 0 2.068-4.515l-2.283-.033A4.679 4.679 0 0 1 12 16.68zm3.279-10.36a1.601 1.601 0 1 0 1.602-2.773A1.601 1.601 0 0 0 15.28 6.32z"/></svg>
